packages/astro-components-stencil/src/icons/insert-link.svg

<svg width="24" height="24" viewBox="0 0 24 24" fill="none" xmlns="http://www.w3.org/2000/svg">
<path fill-rule="evenodd" clip-rule="evenodd" d="M3.96001 11.38C4.24001 9.91 5.62001 8.9 7.12001 8.9H10.05C10.57 8.9 11 8.47 11 7.95C11 7.43 10.57 7 10.05 7H7.22001C4.61001 7 2.28001 8.91 2.03001 11.51C1.74001 14.49 4.08001 17 7.00001 17H10.05C10.57 17 11 16.57 11 16.05C11 15.53 10.57 15.1 10.05 15.1H7.00001C5.09001 15.1 3.58001 13.36 3.96001 11.38ZM9.00001 13H15C15.55 13 16 12.55 16 12C16 11.45 15.55 11 15 11H9.00001C8.45001 11 8.00001 11.45 8.00001 12C8.00001 12.55 8.45001 13 9.00001 13ZM13.95 7H16.78C19.39 7 21.73 8.91 21.98 11.51C22.26 14.49 19.92 17 17 17H13.95C13.43 17 13 16.57 13 16.05C13 15.53 13.43 15.1 13.95 15.1H17C18.91 15.1 20.42 13.36 20.04 11.38C19.76 9.91 18.38 8.9 16.88 8.9H13.95C13.43 8.9 13 8.47 13 7.95C13 7.43 13.43 7 13.95 7Z" fill="black"/>
</svg>

<svg xmlns="http://www.w3.org/2000/svg" viewBox="0 0 24 24"><g xmlns="http://www.w3.org/2000/svg" id="insert-link" fill-rule="nonzero">
            <path d="M3.96 11.38C4.24 9.91 5.62 8.9 7.12 8.9h2.93c.52 0 .95-.43.95-.95S10.57 7 10.05 7H7.22c-2.61 0-4.94 1.91-5.19 4.51A4.995 4.995 0 007 17h3.05c.52 0 .95-.43.95-.95s-.43-.95-.95-.95H7a3.11 3.11 0 01-3.04-3.72zM9 13h6c.55 0 1-.45 1-1s-.45-1-1-1H9c-.55 0-1 .45-1 1s.45 1 1 1zm7.78-6h-2.83c-.52 0-.95.43-.95.95s.43.95.95.95h2.93c1.5 0 2.88 1.01 3.16 2.48A3.11 3.11 0 0117 15.1h-3.05c-.52 0-.95.43-.95.95s.43.95.95.95H17c2.92 0 5.26-2.51 4.98-5.49-.25-2.6-2.59-4.51-5.2-4.51z"/>
        </g></svg>
